storage/app/icons/phosphoricons/light/fork-knife-light.svg

<svg xmlns="http://www.w3.org/2000/svg" fill="currentColor" viewBox="0 0 256 256"><path d="M74 88V40a6 6 0 0 1 12 0v48a6 6 0 0 1-12 0m140-48v184a6 6 0 0 1-12 0v-50h-50a6 6 0 0 1-6-6c0-4.41.68-108.25 59.64-133.51A6 6 0 0 1 214 40m-12 10c-36.79 24.29-42.82 91.48-43.81 112H202Zm-84.08-11a6 6 0 1 0-11.84 2L114 88.48a34 34 0 0 1-68 0L53.92 41a6 6 0 0 0-11.84-2l-8 48a6.6 6.6 0 0 0-.08 1 46.06 46.06 0 0 0 40 45.6V224a6 6 0 0 0 12 0v-90.4A46.06 46.06 0 0 0 126 88a6.6 6.6 0 0 0-.08-1Z"/></svg>

<svg xmlns="http://www.w3.org/2000/svg" viewBox="0 0 256 256" fill="currentColor"><path d="M74,88V40a6,6,0,0,1,12,0V88a6,6,0,0,1-12,0ZM214,40V224a6,6,0,0,1-12,0V174H152a6,6,0,0,1-6-6c0-4.41.68-108.25,59.64-133.51A6,6,0,0,1,214,40ZM202,50c-36.79,24.29-42.82,91.48-43.81,112H202ZM117.92,39a6,6,0,1,0-11.84,2L114,88.48a34,34,0,0,1-68,0L53.92,41a6,6,0,0,0-11.84-2l-8,48A6.61,6.61,0,0,0,34,88a46.06,46.06,0,0,0,40,45.6V224a6,6,0,0,0,12,0V133.6A46.06,46.06,0,0,0,126,88a6.61,6.61,0,0,0-.08-1Z"/></svg>
